symbols/web/add_link/materialsymbolsrounded/add_link_wght500gradN25_24px.svg

<svg xmlns="http://www.w3.org/2000/svg" height="24" width="24"><path d="M7.05 17.075q-2.1 0-3.575-1.475T2 12.05Q2 9.975 3.475 8.5 4.95 7.025 7.05 7.025h2.725q.45 0 .763.312.312.313.312.763t-.312.762q-.313.313-.763.313H7.05q-1.2 0-2.05.837-.85.838-.85 2.038 0 1.2.85 2.037.85.838 2.05.838h2.725q.45 0 .763.312.312.313.312.763t-.312.762q-.313.313-.763.313Zm1.875-4.05q-.4 0-.687-.288-.288-.287-.288-.712 0-.4.288-.688.287-.287.687-.287h6.1q.4 0 .688.287.287.288.287.688 0 .425-.287.712-.288.288-.688.288Zm13.025-1H19.8q0-1.2-.85-2.038-.85-.837-2.025-.837h-2.75q-.45 0-.762-.313-.313-.312-.313-.762t.313-.763Q13.725 7 14.175 7h2.75Q19 7 20.475 8.475q1.475 1.475 1.475 3.55Zm-3.9 8.025q-.4 0-.687-.287-.288-.288-.288-.688V17.15H15.15q-.4 0-.687-.288-.288-.287-.288-.687 0-.425.288-.713.287-.287.687-.287h1.925V13.25q0-.4.288-.688.287-.287.687-.287.425 0 .713.287.287.288.287.688v1.925h1.9q.425 0 .713.287.287.288.287.713 0 .4-.287.687-.288.288-.713.288h-1.9v1.925q0 .4-.287.688-.288.287-.713.287Z"/></svg>

<svg xmlns="http://www.w3.org/2000/svg" height="24" width="24"><path d="M7.05 17.075Q4.95 17.075 3.475 15.6Q2 14.125 2 12.05Q2 9.975 3.475 8.5Q4.95 7.025 7.05 7.025H9.775Q10.225 7.025 10.538 7.337Q10.85 7.65 10.85 8.1Q10.85 8.55 10.538 8.862Q10.225 9.175 9.775 9.175H7.05Q5.85 9.175 5 10.012Q4.15 10.85 4.15 12.05Q4.15 13.25 5 14.087Q5.85 14.925 7.05 14.925H9.775Q10.225 14.925 10.538 15.237Q10.85 15.55 10.85 16Q10.85 16.45 10.538 16.762Q10.225 17.075 9.775 17.075ZM8.925 13.025Q8.525 13.025 8.238 12.737Q7.95 12.45 7.95 12.025Q7.95 11.625 8.238 11.337Q8.525 11.05 8.925 11.05H15.025Q15.425 11.05 15.713 11.337Q16 11.625 16 12.025Q16 12.45 15.713 12.737Q15.425 13.025 15.025 13.025ZM21.95 12.025H19.8Q19.8 10.825 18.95 9.987Q18.1 9.15 16.925 9.15H14.175Q13.725 9.15 13.413 8.837Q13.1 8.525 13.1 8.075Q13.1 7.625 13.413 7.312Q13.725 7 14.175 7H16.925Q19 7 20.475 8.475Q21.95 9.95 21.95 12.025ZM18.05 20.05Q17.65 20.05 17.363 19.763Q17.075 19.475 17.075 19.075V17.15H15.15Q14.75 17.15 14.463 16.862Q14.175 16.575 14.175 16.175Q14.175 15.75 14.463 15.462Q14.75 15.175 15.15 15.175H17.075V13.25Q17.075 12.85 17.363 12.562Q17.65 12.275 18.05 12.275Q18.475 12.275 18.763 12.562Q19.05 12.85 19.05 13.25V15.175H20.95Q21.375 15.175 21.663 15.462Q21.95 15.75 21.95 16.175Q21.95 16.575 21.663 16.862Q21.375 17.15 20.95 17.15H19.05V19.075Q19.05 19.475 18.763 19.763Q18.475 20.05 18.05 20.05Z"/></svg>
